packages/web-icons/svgs/purchaselist_1.svg

<svg viewBox="0 0 48 48" xmlns="http://www.w3.org/2000/svg" class="ridi_icon"><path d="M24 0C10.8 0 0 10.8 0 24s10.8 24 24 24 24-10.8 24-24S37.2 0 24 0zm0 45.1C12.4 45.1 2.9 35.6 2.9 24 2.9 12.4 12.4 2.9 24 2.9c11.6 0 21.1 9.5 21.1 21.1 0 11.6-9.5 21.1-21.1 21.1z"/><path d="M25.4 9.4c-4.9 0-8.9 4-8.9 8.8v15.6l-3.2-3.4-1.9 2 6.8 6.7 6.8-6.8-2.3-1.9-3.4 3.2V18.2c0-3.2 2.8-5.9 6.1-5.9s6 2.7 6 5.9-2.6 5.9-5.8 5.9h-3.4V27h3.4c4.9 0 8.7-3.8 8.7-8.7 0-5-4-8.9-8.9-8.9z"/></svg>

<?xml version="1.0" encoding="UTF-8"?>
<svg width="48px" height="48px" viewBox="0 0 48 48" version="1.1" xmlns="http://www.w3.org/2000/svg">
  <!-- Generator: Sketch 41.2 (35397) - http://www.bohemiancoding.com/sketch -->
  <title>purchaselist_1</title>
  <desc>Created with Sketch.</desc>
  <defs></defs>
  <g id="Page-1" stroke="none" stroke-width="1" fill="none" fill-rule="evenodd">
    <g id="purchaselist_1" fill="#000000">
      <g id="Layer_1">
        <g id="Group">
          <path d="M24,0 C10.8,0 0,10.8 0,24 C0,37.2 10.8,48 24,48 C37.2,48 48,37.2 48,24 C48,10.8 37.2,0 24,0 Z M24,45.1 C12.4,45.1 2.9,35.6 2.9,24 C2.9,12.4 12.4,2.9 24,2.9 C35.6,2.9 45.1,12.4 45.1,24 C45.1,35.6 35.6,45.1 24,45.1 Z" id="Shape"></path>
          <path d="M25.4,9.4 C20.5,9.4 16.5,13.4 16.5,18.2 L16.5,33.8 L13.3,30.4 L11.4,32.4 L18.2,39.1 L25,32.3 L22.7,30.4 L19.3,33.6 L19.3,18.2 C19.3,15 22.1,12.3 25.4,12.3 C28.7,12.3 31.4,15 31.4,18.2 C31.4,21.4 28.8,24.1 25.6,24.1 L22.2,24.1 L22.2,25.1 L22.2,27 L25.6,27 C30.5,27 34.3,23.2 34.3,18.3 C34.3,13.3 30.3,9.4 25.4,9.4 Z" id="Shape"></path>
        </g>
      </g>
    </g>
  </g>
</svg>
